X:2
T:Rakes of Kilkenny (Irish)
M:9/8
L:1/8
R:Slip Jig
Q:"Allegretto"
B:Thomas Wilson - A Companion to the Ball Room (London, 1816, p. 29)
Z:AK/Fiddler's Companion
K:D
DDD DBG FAF|DDD DBG Acd|
DDD DBG FAF|GEG =cA/B/c/A/ GEC:|
|:dcd DdB AGF|dcd dfa gfe|
fdf edc dcB|AGF =cA/B/c/A/ BGE:|]

